light-switch.svg

<svg fill="currentColor" viewBox="0 0 24 24"><path d="M8 6v12h8V6zm6 4h-4V8h4zm5.4-8.4C19 1.2 18.5 1 18 1H6c-.5 0-1 .2-1.4.6S4 2.5 4 3v18c0 .5.2 1 .6 1.4s.9.6 1.4.6h12c.5 0 1-.2 1.4-.6s.6-.9.6-1.4V3c0-.5-.2-1-.6-1.4M18 21H6V3h12z"/></svg>

<svg  viewBox="0 0 24 24" fill="currentColor"><path  d="M8 6V18H16V6H8M14 10H10V8H14V10M19.4 1.6C19 1.2 18.5 1 18 1H6C5.5 1 5 1.2 4.6 1.6C4.2 2 4 2.5 4 3V21C4 21.5 4.2 22 4.6 22.4C5 22.8 5.5 23 6 23H18C18.5 23 19 22.8 19.4 22.4C19.8 22 20 21.5 20 21V3C20 2.5 19.8 2 19.4 1.6M18 21H6V3H18V21Z"/></svg>
